X:1
T:Waly, Waly
M:3/2
L:1/4
K:D
 D D3/2 G/2| A2 d2 e3/2 f/2| e3 A G3/2 A/2| B2 d2 e3/2 c/2| d2 z D F3/2 G/2|\
 A2 d2 e f| e3 G F G| A2 d2 e3/2 c/2| d2 z =c B A| G3 A B3/2 A/2| =c2 zB/2-A/2 B d|\
 A2 f2(2g15.9999925000037/23.999988000006g15.9999925000037/23.999988000006f15.9999925000037/23.999988000006 e15.9999925000037/23.999988000006|\
 d2 z d B A| G3 d A F| E2 z =c B A| d3 F(2G15.9999925000037/23.999988000006G15.9999925000037/23.999988000006F15.9999925000037/23.999988000006 E15.9999925000037/23.999988000006|\
 D3||

